img/logo2.svg

<svg width="24" height="25" viewBox="0 0 24 25" fill="none" xmlns="http://www.w3.org/2000/svg">
<path d="M8.40642 0.800621C5.68063 0.358401 3.11552 2.21009 2.67708 4.93649L0.793921 16.6467C0.35548 19.3731 2.20974 21.9418 4.93553 22.384L16.1243 24.1992C18.8501 24.6414 21.4152 22.7897 21.8536 20.0633L23.7368 8.35312C24.1752 5.62672 22.321 3.05805 19.5952 2.61583L8.40642 0.800621ZM8.03893 11.9092L8.03924 11.9072C8.16354 11.1307 8.28784 10.3541 8.41493 9.57796C8.74658 7.55257 10.5223 6.25386 12.6107 6.55365L12.6174 6.55462C13.4298 6.67126 14.268 6.79159 15.0233 7.08668C16.8 7.78094 17.7242 9.62361 17.3605 11.5169C17.0336 13.2184 15.3943 14.594 13.5863 14.6099C12.958 14.6154 12.3214 14.4969 11.6977 14.3807L11.6576 14.3733C11.1352 14.276 10.809 13.7515 10.8933 13.261C10.9804 12.754 11.4617 12.4101 12.0184 12.4712C12.1894 12.49 12.3601 12.5159 12.5307 12.5419C12.8061 12.5837 13.0813 12.6256 13.3577 12.6371C14.4248 12.6818 15.2544 11.964 15.4116 10.8996C15.5506 9.95916 14.9084 9.00475 13.9199 8.76049C13.3521 8.62026 12.7668 8.52806 12.1842 8.47514C11.307 8.39546 10.5513 9.00917 10.4141 9.86008C10.1992 11.193 9.98492 12.5261 9.77063 13.8591L9.76893 13.8696C9.60521 14.8881 9.44149 15.9065 9.2775 16.9248C9.1761 17.5546 8.69046 17.9296 8.1018 17.8357C7.544 17.7467 7.1881 17.2217 7.28422 16.6128C7.42067 15.7477 7.56023 14.8831 7.6998 14.0186L7.69986 14.0182C7.75684 13.6653 7.81381 13.3123 7.87057 12.9594C7.92686 12.6093 7.9829 12.2592 8.03893 11.9092ZM11.3198 16.4595C11.8183 16.5403 12.1558 17.02 12.0736 17.5309C11.9915 18.0418 11.5208 18.3903 11.0223 18.3095C10.5238 18.2286 10.1863 17.7489 10.2685 17.238C10.3507 16.7272 10.8213 16.3786 11.3198 16.4595Z" fill="#34B3E6"/>
</svg>

<svg width="24" height="25" fill="none" xmlns="http://www.w3.org/2000/svg"><path d="M8.406.8a4.992 4.992 0 00-5.729 4.136L.794 16.646a5.008 5.008 0 004.142 5.738l11.188 1.815a4.992 4.992 0 005.73-4.136l1.883-11.71a5.008 5.008 0 00-4.142-5.737L8.406.8zM8.04 11.91v-.003c.125-.776.249-1.553.376-2.329.332-2.025 2.107-3.324 4.196-3.024h.006c.813.117 1.651.238 2.406.533 1.777.694 2.701 2.537 2.337 4.43-.326 1.701-1.966 3.077-3.774 3.093-.628.005-1.265-.113-1.888-.23l-.04-.007c-.523-.097-.849-.621-.765-1.112.087-.507.569-.85 1.125-.79.171.019.342.045.513.07.275.043.55.085.827.096 1.067.045 1.896-.673 2.054-1.737.139-.94-.504-1.895-1.492-2.14a11.663 11.663 0 00-1.736-.285 1.64 1.64 0 00-1.77 1.385c-.215 1.333-.43 2.666-.643 4l-.002.01-.492 3.055c-.1.63-.587 1.005-1.175.91-.558-.088-.914-.613-.818-1.222.137-.865.276-1.73.416-2.594l.17-1.06.169-1.05zm3.28 4.55c.5.08.837.56.755 1.07a.924.924 0 01-1.052.78.927.927 0 01-.754-1.072.924.924 0 011.052-.779z" fill="#34B3E6"/></svg>
